X:68
T:Kneebuckle
M:6/8
L:1/8
R:Jig
O:"
K:A mix
|"A"eAA eAA|efe "G"edB|"A"eAA "G"ege|dBA ABd|
eAA eAA|efe edB|"Bmi"def "A/C#"gfe|"G"1dBA "D"A2:||2"G"dBA "A"A2a||
"D"afa "A"geg|"D"fdf "A"ecA|afa gfe|dBA A2a|
afa geg|fdf ecA|def gfe|dBA A2a:||
